X:1
T:Barcarolle
T:J. Offenbach
%%score 1 { 2 | 3 }
L:1/8
M:6/8
K:G
V:1 treble nm="Pan Flute" snm="Pn. Fl."
V:2 treble nm="Piano" snm="Pno."
V:3 bass 
V:1
 z6 | z6 | B2 c c2 B | BAc c2 B | BAc c2 B | B3 B z2 | B2 c c2 B | BAc c2 B | BAc c2 B | B6 | %10
 d2 e e2 f | f2 g g2 f | f2 e e2 d | d6 | d2 e e2 f | f2 g g2 f | f2 e e2 d | d3 d z d | %18
 d2 e e2 =f | g6 | gde =fed | e3 e z e | e2 ^f f2 g | a6 | aef gfe | d2 z DFA | d4 fe | d3 DFA | %28
 d3 dfe | d2 z d3 | d6 | B2 c c2 B | BAc c2 B | BAc c2 B | B6 | B2 c c2 B | BAc c2 B | BAc c2 B | %38
 d6 | z AB cde | d6 | z de fga | b6 | bag fge | d3 d2 e | f3 f2 f | g2 z d g2 | d a2 a3 | %48
 g b2 d g2 | d a2 a3 | g b2 b3 | g b2 b3 | d g2 g3 | B d2 d3 | d B2 B3 | G6 | G6 | G6 | G6 | %59
 G2 z4 | z6 |] %61
V:2
 z6 | z6 | [DGB]2 [Gc] [Gc]2 [GB] | [CFB]A[Ec] [Fc]2 [FB] | [CFB]A[Ec] [Fc]2 [Fc] | %5
 [DGB]3 [DGB] z2 | [DGB]2 [Gc] [Gc]2 [GB] | [CFB]A[Ec] [Fc]2 [FB] | [CFB]A[Ec] [Fc]2 [Fc] | %9
 [DGB]6 | [Bd]2 [Be] [Be]2 [Bf] | [cf]2 [cg] [cg]2 [cf] | [cf]2 [Ae] [Ae]2 [Ad] | [Bd]3 [Bd]2 z | %14
 [Bd]2 [Be] [Be]2 [Bf] | [cf]2 [cg] [cg]2 [cf] | [cf]2 [Ae] [^Ae]2 [^Ad] | [Bd]3 [Bd] z [Bd] | %18
 [Bd]2 e [Be]2 =f | g6 | [dg][=FBd][GBe] [AB=f][GBe][=FBd] | [Gce]3 [Gce] z [Gde] | %22
 [G^ce]2 [A^c^f] [^c^f]2 [B^cg] | a6 | [ea][G^ce][A^cf] [B^cg][A^cf][G^ce] | [FAd]2 z dfa | %26
 [dfd']4 [ff'][ee'] | [dfd']3 dfa | [dfd']3 [dfd'][ff'][ee'] | [dd']6 | [dd']6 | B2 c c2 B | %32
 BAc c2 B | BAc c2 B | B6 | B2 c c2 B | BAc c2 B | BAc c2 B | d6 | z AB cd[G_Be] | [G=Bd]6 | %41
 z [Fcd][Gce] [Acf][Bg][cfa] | [Bfb]6 | [Bfb][Bea][Beg] [GAf]g[G_Be] | [G=Bd]3 [GBd]2 [G^ce] | %45
 [F=cf]3 [Fcf]2 [Fcf] | [GBg]2 z d [Bg]2 | d [ca]2 [ca]3 | [Bg] b2 d [Bg]2 | d [ca]2 [ca]3 | %50
 [Bg] b2 b3 | [Bg] b2 b3 | [Bd] g2 g3 | [GB] d2 d3 | [GBd]3 [DGB]3 | [DG]2 [EG] [EG]2 [DG] | %56
 [DG][CG][EG] [EG]2 [DG] | z6 | [DG]3 [CEG]3 | [B,DG]6 | [B,DG]2 z4 |] %61
V:3
 G,,2 D, [B,D]2 D, | G,,2 D, [B,D]2 D, | G,,2 D, [B,D]2 D, | G,,2 D, [A,D]2 D, | %4
 G,,2 D, [A,D]2 D, | G,,2 D, [G,B,]2 D, | G,,2 D, [B,D]2 D, | G,,2 D, [B,D]2 D, | %8
 G,,2 D, [A,D]2 D, | G,,2 D, [B,D]2 D, | G,,2 D, [B,D]2 D, | A,,2 D, [A,D]2 D, | D,,2 D, [CD]2 D, | %13
 G,,2 D, [B,D]2 D, | G,,2 D, [B,D]2 D, | A,,2 D, [A,D]2 D, | D,,2 D, [CD]2 D, | G,,2 D, [B,D]2 D, | %18
 G,,2 G, [B,=F]2 G, | G,,2 G, [B,=F]2 G, | G,,2 G, G2 G, | C,2 G, [CE]2 [_B,,_B,] | A,,2 A, A2 A, | %23
 A,,2 A, [^CG]2 A, | A,,2 A, A2 A, | D,2 A, [DF]2 A, | D,2 B, [D^G]2 B, | D,2 A, [DF]2 A, | %28
 D,2 ^G, [D^E]2 ^G, | [D,A,F]2 [DF] [=EG]2 [^E^G] | [FA]3 [F^A]3 | G,,2 D, [B,G]2 D, | %32
 G,,2 D, [CF]2 D, | G,,2 D, [CF]2 D, | G,,2 D, [B,G]2 D, | G,,2 D, [B,G]2 D, | G,,2 D, [CF]2 D, | %37
 G,,2 D, [CF]2 D, | ^G,,2 ^G, [D^E]2 ^G, | A,,2 A, [C=E]2 ^C | D2 B, G,2 E, | D,3 D3 | %42
 [^D,B,F]3 B,^C^D | E3 =C2 ^C | D2 D, [B,G]2 _B, | A,2 D D,2 z | G,,3 D, [G,B,]2 | G,,2 D, F,2 D, | %48
 G,,2 D, [G,B,]2 D, | G,,2 D, [F,C]2 D, | G,,2 D, [G,B,]2 D, | G,,2 D, [G,B,]2 D, | %52
 G,,2 D, [G,B,]2 D, | G,,2 D, [G,B,]2 D, | [G,,D,]3 [G,,D,]3 | B,2 C C2 B, | B,A,C C2 B, | z6 | %58
 [G,B,]3 [C,G,]3 | G,3 G,,3 | G,,2 z4 |] %61

